public/alergenos/granos-de-sesamo.svg

<svg xmlns="http://www.w3.org/2000/svg" xmlns:xlink="http://www.w3.org/1999/xlink" width="80" zoomAndPan="magnify" viewBox="0 0 60 67.92" height="80" preserveAspectRatio="xMidYMid meet" version="1.0"><path stroke-linecap="round" transform="matrix(1.325997, 0, 0, 1.304315, 1.394204, -7.934128)" fill-opacity="1" fill="#9a8e6c" fill-rule="nonzero" stroke-linejoin="round" d="M 39.937772 29.28721 C 39.937772 39.625489 31.715774 48.008121 21.57305 48.008121 C 11.430327 48.008121 3.208329 39.625489 3.208329 29.28721 C 3.208329 18.94893 11.430327 10.566299 21.57305 10.566299 C 31.715774 10.566299 39.937772 18.94893 39.937772 29.28721 Z M 39.937772 29.28721 " stroke="#9a8e6c" stroke-width="3" stroke-opacity="1" stroke-miterlimit="4"/><path stroke-linecap="round" transform="matrix(1.274592, 0, 0, 1.278095, -252.045651, -396.109896)" fill-opacity="1" fill="#ffffff" fill-rule="nonzero" stroke-linejoin="round" d="M 224.053596 331.423118 L 224.332484 331.050249 L 224.825902 330.585691 L 225.506267 330.090569 L 226.557461 329.286761 L 227.440097 328.715232 L 228.230791 328.235392 L 229.049068 327.770833 L 230.164621 327.275712 L 231.32308 326.890617 L 231.880856 326.811153 L 232.282333 326.841716 L 232.484603 326.982306 C 230.69175 328.962792 228.855991 330.937166 226.897644 332.87792 C 226.971197 333.015453 226.870061 333.305802 227.240891 333.186607 C 229.12875 331.261134 230.979833 329.314267 232.748168 327.306275 L 232.794139 327.831959 C 232.775751 328.125365 232.745103 328.449333 232.683809 328.822202 L 232.438633 330.090569 L 231.972797 331.267247 L 230.799015 333.773417 L 230.115585 334.980658 L 229.652815 335.72334 L 229.156332 336.294869 L 228.475967 336.900018 L 227.673014 337.486828 L 226.511491 337.905542 C 226.103885 338.027794 225.696279 338.128653 225.291737 338.043076 L 224.363131 337.764952 L 223.649055 337.36152 C 223.348714 337.065058 223.109666 336.70747 222.846102 336.374333 C 222.649961 335.918944 222.558019 335.506342 222.567213 335.136529 L 222.628508 334.020978 C 222.830778 333.403604 223.180155 332.663978 223.403878 332.349179 Z M 224.053596 331.423118 " stroke="#ffffff" stroke-width="0.05" stroke-opacity="1" stroke-miterlimit="4"/><path stroke-linecap="round" transform="matrix(1.274592, 0, 0, 1.278095, -252.045651, -396.109896)" fill-opacity="1" fill="#ffffff" fill-rule="nonzero" stroke-linejoin="round" d="M 217.133489 333.617546 L 216.894442 333.932345 L 216.471512 334.323552 L 215.895348 334.736153 L 215.003518 335.411597 L 214.258794 335.888381 L 213.590688 336.2857 L 212.898065 336.673851 L 211.960265 337.08034 L 210.985688 337.392083 L 210.516788 337.450153 L 210.182735 337.416533 L 210.017241 337.294281 C 211.546529 335.619426 213.112594 333.953739 214.779794 332.318616 C 214.721565 332.196364 214.810441 331.948803 214.500906 332.046605 C 212.888871 333.669503 211.310547 335.313795 209.802711 337.010045 L 209.772064 336.554655 C 209.793517 336.304038 209.824164 336.028971 209.879329 335.705002 L 210.106117 334.620014 L 210.513723 333.614489 L 211.537335 331.481188 L 212.125759 330.454269 L 212.527235 329.824671 L 212.950165 329.338718 L 213.529394 328.831371 L 214.209759 328.339306 L 215.184336 328.000056 C 215.527583 327.902254 215.87083 327.82279 216.207948 327.902254 L 216.980254 328.155928 L 217.565613 328.513515 C 217.813854 328.776358 218.00693 329.088101 218.22146 329.37845 C 218.37776 329.772713 218.448248 330.130301 218.432924 330.448157 L 218.362436 331.40478 C 218.184683 331.936578 217.881277 332.56312 217.691266 332.829019 Z M 217.133489 333.617546 " stroke="#ffffff" stroke-width="0.042" stroke-opacity="1" stroke-miterlimit="4"/><path stroke-linecap="round" transform="matrix(1.274592, 0, 0, 1.278095, -252.045651, -396.109896)" fill-opacity="1" fill="#ffffff" fill-rule="nonzero" stroke-linejoin="round" d="M 220.011248 325.03544 L 219.873336 324.717584 L 219.738489 324.219406 L 219.643484 323.583695 L 219.468795 322.584283 L 219.386048 321.783531 L 219.327819 321.077524 L 219.291042 320.356236 L 219.321689 319.421007 L 219.428954 318.488833 L 219.545413 318.079289 L 219.68026 317.81339 L 219.821236 317.721701 C 220.480148 319.625779 221.120672 321.554308 221.709096 323.559244 C 221.813296 323.559244 221.957337 323.724285 221.991049 323.430879 C 221.396496 321.4779 220.771295 319.543259 220.090931 317.648349 L 220.418854 317.795052 C 220.587413 317.905079 220.771295 318.0365 220.976631 318.201541 L 221.66006 318.800577 L 222.227031 319.515752 L 223.376296 321.17227 L 223.897296 322.049429 L 224.206831 322.620958 L 224.402973 323.152756 L 224.565402 323.828199 L 224.681861 324.58005 L 224.592984 325.521392 C 224.547014 325.845361 224.488784 326.16016 224.320226 326.410777 L 223.881972 326.957856 L 223.43759 327.312387 C 223.170961 327.422414 222.889008 327.465203 222.613184 327.535498 C 222.28526 327.51716 222.012502 327.443809 221.791843 327.309331 L 221.148254 326.890617 C 220.835654 326.545255 220.498537 326.05319 220.375948 325.79646 Z M 220.011248 325.03544 " stroke="#ffffff" stroke-width="0.036" stroke-opacity="1" stroke-miterlimit="4"/><path stroke-linecap="round" transform="matrix(1.274592, 0, 0, 1.278095, -252.045651, -396.109896)" fill-opacity="1" fill="#ffffff" fill-rule="nonzero" stroke-linejoin="round" d="M 223.170961 316.664219 L 222.962561 316.551136 L 222.680608 316.324969 L 222.358813 315.994888 L 221.843943 315.490598 L 221.460854 315.053546 L 221.132931 314.656226 L 220.805007 314.240569 L 220.424984 313.656814 L 220.087866 313.033328 L 219.977537 312.718529 L 219.937695 312.480137 L 219.974472 312.342603 C 221.129866 313.121961 222.288325 313.925769 223.446784 314.805985 C 223.501949 314.744859 223.649055 314.766253 223.544855 314.564537 C 222.401719 313.720997 221.24939 312.904963 220.084801 312.143943 L 220.320784 312.046141 C 220.458695 312.018635 220.611931 311.994184 220.792748 311.975846 L 221.408754 311.94834 L 222.012502 312.061423 L 223.327261 312.409842 L 223.973914 312.642121 L 224.378455 312.813274 L 224.709443 313.024159 L 225.080273 313.342015 L 225.460296 313.730166 L 225.812738 314.353652 C 225.923067 314.573706 226.027267 314.796816 226.042591 315.047433 L 226.042591 315.625075 L 225.956779 316.095746 C 225.861773 316.312744 225.726926 316.499179 225.610467 316.700895 C 225.429649 316.875104 225.251896 316.985131 225.080273 317.030976 L 224.559273 317.144059 C 224.246673 317.11044 223.86052 317.006525 223.685831 316.917892 Z M 223.170961 316.664219 " stroke="#ffffff" stroke-width="0.027" stroke-opacity="1" stroke-miterlimit="4"/><path stroke-linecap="round" transform="matrix(1.274592, 0, 0, 1.278095, -252.045651, -396.109896)" fill-opacity="1" fill="#ffffff" fill-rule="nonzero" stroke-linejoin="round" d="M 219.943825 346.55183 L 219.723166 346.261481 L 219.484119 345.79081 L 219.269589 345.179549 L 218.907954 344.225982 L 218.687295 343.452737 L 218.515672 342.768124 L 218.362436 342.065174 L 218.264366 341.145226 L 218.264366 340.216109 L 218.353242 339.800452 L 218.485024 339.519272 L 218.650519 339.412301 C 219.753813 341.191071 220.838719 342.997347 221.865396 344.883088 C 221.997178 344.867806 222.202513 345.011452 222.205578 344.718047 C 221.172772 342.884264 220.109319 341.071875 218.978442 339.30533 L 219.410566 339.403132 C 219.640419 339.488708 219.88866 339.592623 220.173678 339.730157 L 221.120672 340.225278 L 221.935884 340.851821 L 223.624537 342.318847 L 224.406037 343.11043 L 224.874937 343.626946 L 225.199796 344.125124 L 225.500137 344.763892 L 225.754508 345.48518 L 225.779026 346.420409 C 225.769832 346.741321 225.739185 347.059177 225.564496 347.328132 L 225.095596 347.921055 L 224.58379 348.3306 C 224.265061 348.47119 223.915684 348.550654 223.578567 348.657625 C 223.161766 348.682075 222.806261 348.6454 222.515113 348.544542 L 221.641672 348.220573 C 221.200354 347.924112 220.703872 347.48706 220.51386 347.248668 Z M 219.943825 346.55183 " stroke="#ffffff" stroke-width="0.04" stroke-opacity="1" stroke-miterlimit="4"/></svg>

<?xml version="1.0" encoding="UTF-8" standalone="no"?>
<!-- Created with Inkscape (http://www.inkscape.org/) -->

<svg
   xmlns:dc="http://purl.org/dc/elements/1.1/"
   xmlns:cc="http://creativecommons.org/ns#"
   xmlns:rdf="http://www.w3.org/1999/02/22-rdf-syntax-ns#"
   xmlns:svg="http://www.w3.org/2000/svg"
   xmlns="http://www.w3.org/2000/svg"
   xmlns:sodipodi="http://sodipodi.sourceforge.net/DTD/sodipodi-0.dtd"
   xmlns:inkscape="http://www.inkscape.org/namespaces/inkscape"
   width="262.20471"
   height="372.04724"
   id="svg4209"
   version="1.1"
   inkscape:version="0.48.5 r10040"
   sodipodi:docname="IconoAlergenoGranosSesamo.svg">
  <defs
     id="defs4211" />
  <sodipodi:namedview
     id="base"
     pagecolor="#ffffff"
     bordercolor="#666666"
     borderopacity="1.0"
     inkscape:pageopacity="0.0"
     inkscape:pageshadow="2"
     inkscape:zoom="0.56656371"
     inkscape:cx="430.45687"
     inkscape:cy="399.3023"
     inkscape:document-units="px"
     inkscape:current-layer="layer1"
     showgrid="false"
     inkscape:window-width="1280"
     inkscape:window-height="924"
     inkscape:window-x="0"
     inkscape:window-y="28"
     inkscape:window-maximized="1" />
  <metadata
     id="metadata4214">
    <rdf:RDF>
      <cc:Work
         rdf:about="">
        <dc:format>image/svg+xml</dc:format>
        <dc:type
           rdf:resource="http://purl.org/dc/dcmitype/StillImage" />
        <dc:title></dc:title>
      </cc:Work>
    </rdf:RDF>
  </metadata>
  <g
     inkscape:label="Capa 1"
     inkscape:groupmode="layer"
     id="layer1"
     transform="translate(0,-680.31494)">
    <g
       id="g3161"
       transform="matrix(5.5766335,0,0,5.5766335,-1112.9951,-1035.2445)">
      <text
         sodipodi:linespacing="125%"
         id="text4033-9-9"
         y="363.09369"
         x="222.97565"
         style="font-size:15px;font-style:normal;font-weight:normal;text-align:center;line-height:125%;letter-spacing:0px;word-spacing:0px;text-anchor:middle;fill:#000000;fill-opacity:1;stroke:none;font-family:Sans"
         xml:space="preserve"><tspan
           style="font-size:5.5px"
           id="tspan4037-1-74"
           y="363.09369"
           x="222.97565"
           sodipodi:role="line">GRANOS</tspan><tspan
           id="tspan3304"
           style="font-size:5.5px"
           y="369.96869"
           x="222.97565"
           sodipodi:role="line">DE SÉSAMO</tspan></text>
      <g
         id="g3152">
        <path
           sodipodi:type="arc"
           style="fill:#9a8e6c;fill-opacity:1;stroke:#9a8e6c;stroke-width:3;stroke-linecap:round;stroke-linejoin:round;stroke-miterlimit:4;stroke-opacity:1;stroke-dasharray:none;stroke-dashoffset:0"
           id="path3230-2-6"
           sodipodi:cx="21.573027"
           sodipodi:cy="29.287827"
           sodipodi:rx="18.363815"
           sodipodi:ry="18.720394"
           d="m 39.936842,29.287827 c 0,10.338988 -8.22176,18.720394 -18.363815,18.720394 -10.142055,0 -18.3638157,-8.381406 -18.3638157,-18.720394 0,-10.338989 8.2217607,-18.720395 18.3638157,-18.720395 10.142055,0 18.363815,8.381406 18.363815,18.720395 z"
           transform="matrix(1.0403305,0,0,1.0205147,200.64805,303.71423)" />
        <g
           id="g3141"
           transform="translate(1.8080426,0)">
          <path
             sodipodi:nodetypes="ccccccccccccccccccccccccccccccccccc"
             inkscape:connector-curvature="0"
             id="path4248"
             d="m 224.05263,331.42229 0.27846,-0.37129 0.49505,-0.46411 0.68069,-0.49505 1.05198,-0.80445 0.88181,-0.57237 0.78899,-0.47957 0.81994,-0.46412 1.11382,-0.49509 1.16031,-0.38674 0.55693,-0.0773 0.40221,0.0309 0.20111,0.13923 c -1.7935,1.98176 -3.62729,3.95344 -5.58476,5.8942 0.071,0.14027 -0.0292,0.43036 0.34034,0.3094 1.88982,-1.92357 3.74093,-3.87293 5.50742,-5.87872 l 0.0464,0.52596 c -0.0175,0.29285 -0.0496,0.61486 -0.10827,0.99003 l -0.24752,1.26856 -0.46412,1.17585 -1.17574,2.50619 -0.6807,1.20668 -0.46411,0.74257 -0.49506,0.57242 -0.68068,0.60333 -0.80445,0.58787 -1.16028,0.41771 c -0.40739,0.12238 -0.81477,0.22288 -1.22215,0.13921 l -0.92821,-0.27842 -0.71164,-0.40226 c -0.30143,-0.29676 -0.53974,-0.65663 -0.80446,-0.9901 -0.19532,-0.45354 -0.28936,-0.86657 -0.27846,-1.23762 l 0.0619,-1.11387 c 0.20111,-0.61911 0.55148,-1.3575 0.77351,-1.67079 z"
             style="fill:#ffffff;fill-opacity:1;stroke:#ffffff;stroke-width:0.05;stroke-linecap:round;stroke-linejoin:round;stroke-miterlimit:4;stroke-opacity:1;stroke-dasharray:none" />
          <path
             sodipodi:nodetypes="ccccccccccccccccccccccccccccccccccc"
             inkscape:connector-curvature="0"
             id="path4248-0"
             d="m 217.132,333.61727 -0.23871,0.31461 -0.42113,0.39076 -0.57668,0.41421 -0.89189,0.67402 -0.74592,0.4773 -0.66687,0.39906 -0.69244,0.38525 -0.93839,0.40689 -0.97541,0.31291 -0.46639,0.0571 -0.33537,-0.0334 -0.16563,-0.12317 c 1.5307,-1.67399 3.09489,-3.33863 4.76184,-4.97459 -0.057,-0.12185 0.0316,-0.36965 -0.27908,-0.27189 -1.61017,1.62231 -3.18844,3.26747 -4.69699,4.96259 l -0.0301,-0.45315 c 0.0195,-0.25158 0.0517,-0.52799 0.10687,-0.84967 l 0.22779,-1.08687 0.40714,-1.00343 1.02353,-2.13555 0.58851,-1.02628 0.39992,-0.63079 0.42295,-0.48392 0.57847,-0.50734 0.68157,-0.49194 0.9759,-0.33956 c 0.34226,-0.0983 0.68412,-0.17784 1.02294,-0.099 l 0.77052,0.25524 0.58761,0.35807 c 0.24679,0.26036 0.43983,0.57393 0.65536,0.86524 0.15557,0.3934 0.22724,0.75023 0.21197,1.06919 l -0.0702,0.95696 c -0.17824,0.52907 -0.48311,1.1582 -0.67374,1.42387 z"
             style="fill:#ffffff;fill-opacity:1;stroke:#ffffff;stroke-width:0.04238347;stroke-linecap:round;stroke-linejoin:round;stroke-miterlimit:4;stroke-opacity:1;stroke-dasharray:none;display:inline" />
          <path
             sodipodi:nodetypes="ccccccccccccccccccccccccccccccccccc"
             inkscape:connector-curvature="0"
             id="path4248-5"
             d="m 220.01263,325.03413 -0.14022,-0.31726 -0.13249,-0.49797 -0.0969,-0.63649 -0.17321,-0.99694 -0.0844,-0.80131 -0.0561,-0.70599 -0.0379,-0.72214 0.0292,-0.93535 0.10728,-0.93091 0.11603,-0.41032 0.13552,-0.26709 0.14151,-0.0918 c 0.65901,1.90531 1.30029,3.83504 1.88713,5.83967 0.10426,-0.002 0.24799,0.16518 0.28347,-0.13055 -0.59628,-1.95217 -1.21922,-3.88632 -1.90041,-5.7811 l 0.32697,0.14524 c 0.16944,0.11076 0.35201,0.24143 0.55853,0.40835 l 0.68399,0.59829 0.56569,0.7165 1.15139,1.65582 0.52101,0.87632 0.30746,0.57047 0.19705,0.53448 0.16142,0.67297 0.11619,0.75316 -0.0888,0.94133 c -0.0456,0.32233 -0.10436,0.63727 -0.27282,0.89015 l -0.43614,0.54661 -0.44689,0.35544 c -0.26461,0.10797 -0.54847,0.15111 -0.82427,0.22138 -0.32716,-0.0181 -0.6007,-0.0924 -0.81867,-0.22496 l -0.64583,-0.41809 c -0.31043,-0.3474 -0.64852,-0.83799 -0.7706,-1.09676 z"
             style="fill:#ffffff;fill-opacity:1;stroke:#ffffff;stroke-width:0.03568314;stroke-linecap:round;stroke-linejoin:round;stroke-miterlimit:4;stroke-opacity:1;stroke-dasharray:none;display:inline" />
          <path
             sodipodi:nodetypes="ccccccccccccccccccccccccccccccccccc"
             inkscape:connector-curvature="0"
             id="path4248-1"
             d="m 223.17006,316.66457 -0.20885,-0.11238 -0.28123,-0.22628 -0.32091,-0.33047 -0.51406,-0.50541 -0.38404,-0.43743 -0.32866,-0.39579 -0.32579,-0.41595 -0.38035,-0.58333 -0.33695,-0.62511 -0.11194,-0.31467 -0.0407,-0.23902 0.0364,-0.13622 c 1.15689,0.77918 2.31469,1.58324 3.47522,2.4637 0.0547,-0.0604 0.20181,-0.0411 0.0955,-0.24051 -1.14335,-0.84328 -2.29326,-1.66048 -3.45748,-2.42064 l 0.23537,-0.0982 c 0.13699,-0.0294 0.28941,-0.0541 0.46989,-0.0706 l 0.617,-0.027 0.60411,0.11202 1.31318,0.34766 0.64799,0.2343 0.40497,0.17058 0.33101,0.21164 0.37066,0.31583 0.38056,0.39018 0.35118,0.62091 c 0.11209,0.22129 0.2142,0.44553 0.23163,0.69467 l -6e-4,0.57951 -0.0872,0.46982 c -0.095,0.21609 -0.22775,0.40385 -0.3447,0.60346 -0.18166,0.17533 -0.35858,0.28605 -0.53063,0.32984 l -0.52044,0.11441 c -0.31216,-0.0337 -0.6996,-0.13846 -0.87405,-0.22574 z"
             style="fill:#ffffff;fill-opacity:1;stroke:#ffffff;stroke-width:0.02677974;stroke-linecap:round;stroke-linejoin:round;stroke-miterlimit:4;stroke-opacity:1;stroke-dasharray:none;display:inline" />
          <path
             sodipodi:nodetypes="ccccccccccccccccccccccccccccccccccc"
             inkscape:connector-curvature="0"
             id="path4248-19"
             d="m 219.94484,346.55265 -0.22223,-0.2922 -0.23856,-0.47033 -0.21371,-0.61079 -0.36173,-0.95385 -0.22179,-0.77397 -0.17242,-0.68434 -0.15183,-0.70259 -0.0981,-0.92046 9.1e-4,-0.92652 0.087,-0.41756 0.13207,-0.2798 0.1649,-0.10886 c 1.10419,1.77924 2.18956,3.58475 3.21723,5.47094 0.13099,-0.0156 0.33601,0.12872 0.33802,-0.16572 -1.03199,-1.8335 -2.09492,-3.64581 -3.22551,-5.41176 l 0.43252,0.0987 c 0.22929,0.0859 0.47791,0.18967 0.76195,0.32568 l 0.94724,0.49511 0.81536,0.62672 1.68804,1.46911 0.78216,0.78929 0.46926,0.51804 0.32508,0.49749 0.30021,0.63795 0.25481,0.72256 0.0238,0.93427 c -0.0111,0.32193 -0.0394,0.63839 -0.21509,0.90865 l -0.47023,0.59376 -0.51132,0.40788 c -0.31754,0.14107 -0.66863,0.22119 -1.0057,0.32681 -0.41443,0.0259 -0.76947,-0.0105 -1.06295,-0.11132 l -0.87323,-0.32361 c -0.44086,-0.29905 -0.93715,-0.73474 -1.12812,-0.97204 z"
             style="fill:#ffffff;fill-opacity:1;stroke:#ffffff;stroke-width:0.03993879;stroke-linecap:round;stroke-linejoin:round;stroke-miterlimit:4;stroke-opacity:1;stroke-dasharray:none;display:inline" />
        </g>
      </g>
    </g>
  </g>
</svg>
